icons/type-icons/icons/application-atom+xml.svg

<?xml version="1.0" encoding="UTF-8"?>
<svg id="svg2" width="22" height="22" version="1.1" xmlns="http://www.w3.org/2000/svg" xmlns:cc="http://creativecommons.org/ns#" xmlns:dc="http://purl.org/dc/elements/1.1/" xmlns:rdf="http://www.w3.org/1999/02/22-rdf-syntax-ns#">
 <metadata id="metadata3874">
  <rdf:RDF>
   <cc:Work rdf:about="">
    <dc:format>image/svg+xml</dc:format>
    <dc:type rdf:resource="http://purl.org/dc/dcmitype/StillImage"/>
   </cc:Work>
  </rdf:RDF>
 </metadata>
 <g id="layer1-8" transform="translate(0 -1030.4)" fill="#f27935">
  <path id="path4171-5" transform="translate(0 1030.4)" d="m3 3v2a14 14 0 0 1 14 14h2a16 16 0 0 0-16-16zm0 5v2a9 9 0 0 1 9 9h2a11 11 0 0 0-11-11zm2.5 6a2.5 2.5 0 0 0-2.5 2.5 2.5 2.5 0 0 0 2.5 2.5 2.5 2.5 0 0 0 2.5-2.5 2.5 2.5 0 0 0-2.5-2.5z" fill="#fc963a" stroke-linecap="round" stroke-width=".1"/>
 </g>
</svg>

<?xml version="1.0" encoding="UTF-8" standalone="no"?>
<!-- Created with Inkscape (http://www.inkscape.org/) -->

<svg
   xmlns:dc="http://purl.org/dc/elements/1.1/"
   xmlns:cc="http://creativecommons.org/ns#"
   xmlns:rdf="http://www.w3.org/1999/02/22-rdf-syntax-ns#"
   xmlns:svg="http://www.w3.org/2000/svg"
   xmlns="http://www.w3.org/2000/svg"
   xmlns:sodipodi="http://sodipodi.sourceforge.net/DTD/sodipodi-0.dtd"
   xmlns:inkscape="http://www.inkscape.org/namespaces/inkscape"
   width="22"
   version="1.1"
   height="22"
   id="svg2"
   inkscape:version="0.91 r13725"
   sodipodi:docname="application-atom+xml.svg">
  <sodipodi:namedview
     pagecolor="#ffffff"
     bordercolor="#666666"
     borderopacity="1"
     objecttolerance="10"
     gridtolerance="10"
     guidetolerance="10"
     inkscape:pageopacity="0"
     inkscape:pageshadow="2"
     inkscape:window-width="676"
     inkscape:window-height="708"
     id="namedview10"
     showgrid="false"
     inkscape:zoom="10.727273"
     inkscape:cx="11"
     inkscape:cy="11"
     inkscape:window-x="680"
     inkscape:window-y="0"
     inkscape:window-maximized="0"
     inkscape:current-layer="layer1-8" />
  <defs
     id="defs3871" />
  <metadata
     id="metadata3874">
    <rdf:RDF>
      <cc:Work
         rdf:about="">
        <dc:format>image/svg+xml</dc:format>
        <dc:type
           rdf:resource="http://purl.org/dc/dcmitype/StillImage" />
      </cc:Work>
    </rdf:RDF>
  </metadata>
  <g
     inkscape:label="Capa 1"
     inkscape:groupmode="layer"
     style="fill:#f27935"
     id="layer1-8"
     transform="matrix(1 0 0 1 0 -1030.3622)">
    <path
       style="stroke-linecap:round;stroke-width:0.1;fill:#fc963a;fill-opacity:1"
       d="M 3 3 L 3 5 A 14 14 0 0 1 17 19 L 19 19 A 16 16 0 0 0 3 3 z M 3 8 L 3 10 A 9 9 0 0 1 12 19 L 14 19 A 11 11 0 0 0 3 8 z M 5.5 14 A 2.5 2.5 0 0 0 3 16.5 A 2.5 2.5 0 0 0 5.5 19 A 2.5 2.5 0 0 0 8 16.5 A 2.5 2.5 0 0 0 5.5 14 z "
       transform="translate(0,1030.3622)"
       id="path4171-5" />
  </g>
</svg>
